X: 2185
T: Şu Dalma`nın Çeşmesi
C: Muzaffer Sarısözen
O: Turkey
F: http://compmusic.upf.edu/node/140
N: ussak--turku--aksak--su_dalmanin--aydin
N: makam= ussak
N: form= turku
N: usul= aksak = 9/8
M: 9/8
L: 1/16
K: C _2/4B   
Q: 1/4=120
%%MIDI tuningsystem comma53
G2GA A2A2 AcBc A4 A2 | G2 GAA2 A2Ac BcA4A2  | 
w:  Şu  Dal *  ma nın  çeş *  *  *  me si    |  Ne  hoş  *  o lur  iç *  *  *  me si    | 
d2de e2e2 eg^3/4fg e4 d2 | c2 ddd2 d2dg ^3/4fed2 c2B2  | 
w:  Yö rük  A li yi  so *  *  *  rar san  |  E *  fe le rin  seç *  *  *  me *  si    | 
G3/2A/AA A2AB G4 Bcd_e dc | cc cBB2 BAA8z2  | 
w:  Hey  gi di nin  e fe *  si  e *  fe *  si    |  e fe le rin  e fe fe si    | 
G3/2A/AA A2AB G4 Bcd_e dc | cc cBB2 BAA8z2  | 
w:  Hey  gi di nin  e fe *  si  e *  fe *  si    |  e fe le rin  e fe fe si    | 
|


